X: 008
T: Green Briar (jig)
N: 070102
C: BB
R: jig
Q: 340
M: 6/8
L: 1/8
K: G
D|"G"GBA GBA | "G"GBd "C"efg | "Em7"edB "G"dgg | "Em7"edB "C"GFE |
"G"DEG DB,D | "G"GBd "C"efg | "D"a2 f "G"gdB | "D7"cAF "G"G2 :|
A|"G"dBd "Em"efg | "Am"a^ga "G"ba=g | "Em7"ede "G"gfg | "Em7"edB "Am7"AGE |
"G"DEG BAB | "G"dBd "C"efg | "D"a2 f "G"gdB | "D7"cAF "G"G2 :|
%%%%%%%%%%%%%%%%%%%%%%%%%%%%%%%%%%%%%%%%%%%
